packages/foundations/assets/icons/functional/images/business & payment/cash_28.svg

<svg width="28" height="28" viewBox="0 0 28 28" fill="none" xmlns="http://www.w3.org/2000/svg">
<g clip-path="url(#clip0_184_5)">
<path fill-rule="evenodd" clip-rule="evenodd" d="M18.9031 16.1882C20.5071 16.1882 22.0701 16.6782 23.3851 17.5882C24.2611 18.1942 24.8871 18.6612 25.2621 18.9882C25.6481 19.2782 25.7271 19.8262 25.4371 20.2132C25.1691 20.5702 24.6331 20.6832 24.3041 20.4482C24.0841 20.2912 23.5091 19.8632 22.5781 19.1632C21.5904 18.4221 20.4017 17.9968 19.1681 17.9432L16.0411 17.9382C15.3821 17.9382 14.8081 18.3862 14.6481 19.0252C14.6301 19.0987 14.6279 19.1751 14.6414 19.2496C14.6549 19.324 14.6839 19.3948 14.7265 19.4573C14.7691 19.5198 14.8244 19.5726 14.8888 19.6124C14.9531 19.6522 15.0251 19.678 15.1001 19.6882H18.6121C18.8441 19.6882 19.0667 19.7804 19.2308 19.9445C19.3949 20.1085 19.4871 20.3311 19.4871 20.5632C19.4871 20.7952 19.3949 21.0178 19.2308 21.1819C19.0667 21.346 18.8441 21.4382 18.6121 21.4382H15.1641C14.4111 21.4282 14.1121 21.2762 12.3841 20.5632C11.9101 20.3682 11.0601 20.0302 9.83106 19.5492C9.34676 19.3601 8.82221 19.2976 8.30705 19.3678C7.79189 19.438 7.30314 19.6384 6.88706 19.9502C6.75006 20.0532 6.68306 20.3702 6.96706 20.4882C7.14906 20.5642 9.28706 21.3412 13.3771 22.8192C13.9521 23.0292 14.5541 23.1492 15.1641 23.1802L19.6691 23.1882C20.0831 23.1882 20.4981 23.2212 20.9071 23.2862L24.9081 24.0802C25.1341 24.1272 25.3323 24.2617 25.4596 24.4543C25.5869 24.6468 25.633 24.8819 25.5877 25.1083C25.5425 25.3347 25.4096 25.534 25.2181 25.6628C25.0265 25.7917 24.7918 25.8396 24.5651 25.7962L20.8701 25.0562C20.5732 24.9973 20.2724 24.9606 19.9701 24.9462L15.4701 24.9382C14.6675 24.938 13.8696 24.8153 13.1041 24.5742L6.36906 22.1332C6.02065 22.0061 5.713 21.7874 5.47858 21.5C5.24416 21.2126 5.09166 20.8673 5.03718 20.5005C4.9827 20.1336 5.02825 19.7589 5.16904 19.4158C5.30982 19.0727 5.54062 18.774 5.83706 18.5512C6.46067 18.0834 7.18871 17.7743 7.95839 17.6506C8.72807 17.5269 9.51629 17.5923 10.2551 17.8412L12.9001 18.8692C13.1041 17.3392 14.5421 16.1882 15.9871 16.1882H18.9031ZM9.38806 2.18817C11.2446 2.18817 13.0251 2.92567 14.3378 4.23842C15.6506 5.55118 16.3881 7.33166 16.3881 9.18817C16.3881 11.0447 15.6506 12.8252 14.3378 14.1379C13.0251 15.4507 11.2446 16.1882 9.38806 16.1882C7.53155 16.1882 5.75107 15.4507 4.43831 14.1379C3.12556 12.8252 2.38806 11.0447 2.38806 9.18817C2.38806 7.33166 3.12556 5.55118 4.43831 4.23842C5.75107 2.92567 7.53155 2.18817 9.38806 2.18817ZM9.38806 3.93817C7.99568 3.93817 6.66032 4.49129 5.67575 5.47586C4.69118 6.46043 4.13806 7.79578 4.13806 9.18817C4.13806 10.5806 4.69118 11.9159 5.67575 12.9005C6.66032 13.885 7.99568 14.4382 9.38806 14.4382C10.7804 14.4382 12.1158 13.885 13.1004 12.9005C14.0849 11.9159 14.6381 10.5806 14.6381 9.18817C14.6381 7.79578 14.0849 6.46043 13.1004 5.47586C12.1158 4.49129 10.7804 3.93817 9.38806 3.93817ZM9.87606 5.68817C10.3711 5.68817 10.8181 5.75317 11.2181 5.88217C11.4841 5.97317 11.7501 6.25017 11.6581 6.60617C11.5311 7.03117 11.1121 7.09017 10.8231 7.01417C10.5481 6.94016 10.2648 6.90184 9.98006 6.90017C9.55006 6.90017 9.24106 6.99017 9.05206 7.17017C8.86206 7.35017 8.73006 7.64917 8.65406 8.06617H10.4061V8.86117H8.63606V9.48617H10.4061V10.2822H8.65406C8.71106 10.7242 8.83706 11.0302 9.03306 11.2012C9.22906 11.3712 9.55106 11.4572 9.99906 11.4572C10.2841 11.4572 11.0491 11.2822 11.1161 11.2692C11.3321 11.2242 11.5971 11.3662 11.6881 11.6012C11.8631 12.0552 11.4631 12.2902 11.3441 12.3562C11.2241 12.4232 10.8941 12.5382 10.6201 12.5982C10.3451 12.6582 10.0691 12.6882 9.79006 12.6882C9.19006 12.6882 8.70006 12.6032 8.31806 12.4322C7.94707 12.2712 7.63583 11.9981 7.42806 11.6512C7.21606 11.3012 7.06906 10.8442 6.98706 10.2822H6.36206V9.48617H6.95906V8.86117H6.36206V8.06617H6.98706C7.09406 7.49117 7.25806 7.03117 7.47906 6.68717C7.70106 6.34317 8.00406 6.09117 8.38906 5.93017C8.77406 5.76917 9.26906 5.68817 9.87606 5.68817Z" fill="#1A1C1F"/>
</g>
<defs>
<clipPath id="clip0_184_5">
<rect width="28" height="28" fill="white"/>
</clipPath>
</defs>
</svg>

<svg xmlns="http://www.w3.org/2000/svg" width="28" height="28" fill="none"><g clip-path="url(#a)"><path fill="#1A1C1F" fill-rule="evenodd" d="M18.903 16.188c1.604 0 3.167.49 4.482 1.4q1.314.91 1.877 1.4c.386.29.465.838.175 1.225-.268.357-.804.47-1.133.235q-.33-.235-1.726-1.285a6.13 6.13 0 0 0-3.41-1.22l-3.127-.005c-.659 0-1.233.448-1.393 1.087a.54.54 0 0 0 .452.663h3.512a.875.875 0 0 1 0 1.75h-3.448c-.753-.01-1.052-.162-2.78-.875a186 186 0 0 0-2.553-1.014 3.06 3.06 0 0 0-2.944.401c-.137.103-.204.42.08.538q.274.114 6.41 2.331c.575.21 1.177.33 1.787.361l4.505.008c.414 0 .83.033 1.238.098l4.001.794a.875.875 0 0 1-.343 1.716l-3.695-.74a6 6 0 0 0-.9-.11l-4.5-.008c-.803 0-1.6-.123-2.366-.364l-6.735-2.44a2.06 2.06 0 0 1-.532-3.583 4.8 4.8 0 0 1 4.418-.71L12.9 18.87c.204-1.53 1.642-2.68 3.087-2.68zm-9.515-14a7 7 0 1 1 0 14 7 7 0 0 1 0-14m0 1.75a5.25 5.25 0 1 0 0 10.5 5.25 5.25 0 0 0 0-10.5m.488 1.75q.742 0 1.342.194c.266.091.532.368.44.724-.127.425-.546.484-.835.408A3.3 3.3 0 0 0 9.98 6.9q-.645 0-.928.27-.284.271-.398.896h1.752v.795h-1.77v.625h1.77v.796H8.654q.085.663.38.92.293.255.965.255c.285 0 1.05-.175 1.117-.188.216-.045.481.097.572.332.175.454-.225.69-.344.755-.12.067-.45.182-.724.242q-.411.09-.83.09-.9 0-1.472-.256a1.94 1.94 0 0 1-.89-.78q-.318-.526-.44-1.37h-.626v-.796h.597v-.625h-.597v-.795h.625q.16-.863.492-1.379.333-.516.91-.757t1.487-.242" clip-rule="evenodd"/></g><defs><clipPath id="a"><path fill="#fff" d="M0 0h28v28H0z"/></clipPath></defs></svg>
